packages/calcite-ui-icons/icons/geometric-network-16.svg

<?xml version="1.0" encoding="UTF-8"?><svg id="icons" xmlns="http://www.w3.org/2000/svg" viewBox="0 0 16 16"><defs><style>.cls-1{fill:none;}</style></defs><rect class="cls-1" width="16" height="16"/><path d="M16,4c0-.55231-.44769-1-1-1h-6v-.0918c.58124-.2066,1-.75604,1-1.4082,0-.82843-.67157-1.5-1.5-1.5s-1.5.67157-1.5,1.5c0,.65216.41876,1.2016,1,1.4082v.0918h-4c-.55231,0-1,.44769-1,1v5h-.0918c-.2066-.58124-.75604-1-1.4082-1-.82843,0-1.5.67157-1.5,1.5s.67157,1.5,1.5,1.5c.65216,0,1.2016-.41876,1.4082-1h.0918v3c0,.55225.44769,1,1,1h9.01898l.05786.04822c-.04559.14343-.07684.29327-.07684.45178,0,.82843.67157,1.5,1.5,1.5s1.5-.67157,1.5-1.5c0-.3125-.09589-.60236-.2594-.84259.15662-.17651.2594-.40289.2594-.65741V4ZM8,1h1v1h-1v-1ZM4,4.5c0-.27618.22388-.5.5-.5h3.5v4.0918c-.42413.15076-.75745.48407-.9082.9082h-3.0918v-4.5ZM9,9v1h-1v-1h1ZM1,10v-1h1v1h-1ZM4.5,13c-.27612,0-.5-.22388-.5-.5v-2.5h3.0918c.2066.58124.75604,1,1.4082,1,.25482,0,.49109-.06946.70123-.18158l2.39874,2.18158h-7.09998ZM15,15h-1v-1h1v1ZM15,12.5c0,.27612-.22388.5-.5.5h-1.5l-3.11804-2.91577c.07599-.17957.11804-.37695.11804-.58423,0-.65216-.41876-1.2016-1-1.4082v-4.0918h5.5c.27612,0,.5.22382.5.5v8Z"/></svg>

<svg xmlns="http://www.w3.org/2000/svg" viewBox="0 0 16 16"><path d="M0 0h16v16H0z" style="fill:none"/><path d="M16 4a1 1 0 0 0-1-1H9v-.092A1.496 1.496 0 0 0 8.5 0 1.496 1.496 0 0 0 8 2.908V3H4a1 1 0 0 0-1 1v5h-.092A1.496 1.496 0 0 0 0 9.5a1.496 1.496 0 0 0 2.908.5H3v3a1 1 0 0 0 1 1h9.019l.058.048A1.5 1.5 0 0 0 13 14.5a1.5 1.5 0 1 0 2.74-.843A1 1 0 0 0 16 13zM8 1h1v1H8zM4 4.5a.5.5 0 0 1 .5-.5H8v4.092c-.424.15-.757.484-.908.908H4zM9 9v1H8V9zm-8 1V9h1v1zm3.5 3a.5.5 0 0 1-.5-.5V10h3.092c.206.581.756 1 1.408 1 .255 0 .491-.07.701-.182L11.6 13zM15 15h-1v-1h1zm0-2.5a.5.5 0 0 1-.5.5H13l-3.118-2.916A1.495 1.495 0 0 0 9 8.092V4h5.5a.5.5 0 0 1 .5.5z"/></svg>
